!!!OTL: 1548. Lob auf die Bauersleute.
!!!ODT: 1650
!!!ARE: Europa, Mitteleuropa, Deutschland
!!!SCT: E1548
!!!TXL: @@DE
!!!YEM: Copyright 1995, estate of Helmut Schaffrath.
**kern	**text
*ICvox	*
*M4/4	*
*met(c)	*
*k[f#]	*
*G:	*
!LO:TX:a:t=Handſchr. um 1650.	!
{4g	Nun
=1	=1
4g	mer-
4a	-kend
4b	auf,
4g	ihr
=2	=2
4.dd	lie-
8cc	-ben
4b}	Freund,
{4dd	all
=3	=3
4ee	wie
4ff#	ihr
4gg	hie
4dd	ver-
=4	=4
4.dd	-ſam-
8cc	-blet
4b}	ſeind,
{4b	der
=5	=5
4g	Him-
4a	-mel
4b	hat
4b	be-
=6	=6
8aL	-ſeſ-
8b	.
8a	.
8gJ	.
4f#}	-ſen,
{4f#	der
=7	=7
8aL	gſeg'n
8gJ	.
8f#L	euch
8eJ	das
4d	Trink'n
4g	und
=8	=8
(4.g	Eſ-
8f#)	.
4g}	-ſen.
==	==
!!!AGN: Staende -, Bauern - Lied, Lob
!!!ONB: ESAC (Essen Associative Code) Database: ERK3
!!!AMT: simple quadruple
!!!AIN: vox
!!!EED: Helmut Schaffrath
!!!EEV: 1.0
!!!GTL: Staendelieder (Berufslieder). 6. Bauernlieder (von und gegen Bauern).
!!!URL-scan: https://rosdok.uni-rostock.de/mcrviewer/recordIdentifier/rosdok_ppn745177999/iview2/phys_0394.iview2?x=-128.77276441889285&y=1000.2859894237481&scale=0.5870222003877487&rotation=0&layout=singlePageLayout
!!!ENC: Anna Maria Matuszewska
!!!EEV: 2025/03/01
*-	*-
